icons/circle/48/falkon.svg

<?xml version="1.0" encoding="UTF-8" standalone="no"?>
<svg
   xmlns:dc="http://purl.org/dc/elements/1.1/"
   xmlns:cc="http://creativecommons.org/ns#"
   xmlns:rdf="http://www.w3.org/1999/02/22-rdf-syntax-ns#"
   xmlns:svg="http://www.w3.org/2000/svg"
   xmlns="http://www.w3.org/2000/svg"
   xmlns:sodipodi="http://sodipodi.sourceforge.net/DTD/sodipodi-0.dtd"
   xmlns:inkscape="http://www.inkscape.org/namespaces/inkscape"
   version="1.1"
   viewBox="0 0 48 48"
   id="svg27"
   sodipodi:docname="falkon.svg"
   inkscape:version="0.92.2 5c3e80d, 2017-08-06">
  <metadata
     id="metadata31">
    <rdf:RDF>
      <cc:Work
         rdf:about="">
        <dc:format>image/svg+xml</dc:format>
        <dc:type
           rdf:resource="http://purl.org/dc/dcmitype/StillImage" />
        <dc:title></dc:title>
      </cc:Work>
    </rdf:RDF>
  </metadata>
  <sodipodi:namedview
     pagecolor="#ffffff"
     bordercolor="#666666"
     borderopacity="1"
     objecttolerance="10"
     gridtolerance="10"
     guidetolerance="10"
     inkscape:pageopacity="0"
     inkscape:pageshadow="2"
     inkscape:window-width="3840"
     inkscape:window-height="2092"
     id="namedview29"
     showgrid="true"
     inkscape:zoom="27.812867"
     inkscape:cx="19.671154"
     inkscape:cy="16.598466"
     inkscape:window-x="0"
     inkscape:window-y="68"
     inkscape:window-maximized="1"
     inkscape:current-layer="svg27">
    <inkscape:grid
       type="xygrid"
       id="grid840" />
  </sodipodi:namedview>
  <defs
     id="defs7">
    <linearGradient
       id="bg"
       x2="0"
       y1="1"
       y2="47"
       gradientUnits="userSpaceOnUse">
      <stop
         style="stop-color:#b799fd"
         offset="0"
         id="stop2" />
      <stop
         style="stop-color:#a987fb"
         offset="1"
         id="stop4" />
    </linearGradient>
  </defs>
  <path
     d="m36.31 5c5.859 4.062 9.688 10.831 9.688 18.5 0 12.426-10.07 22.5-22.5 22.5-7.669 0-14.438-3.828-18.5-9.688 1.037 1.822 2.306 3.499 3.781 4.969 4.085 3.712 9.514 5.969 15.469 5.969 12.703 0 23-10.298 23-23 0-5.954-2.256-11.384-5.969-15.469-1.469-1.475-3.147-2.744-4.969-3.781zm4.969 3.781c3.854 4.113 6.219 9.637 6.219 15.719 0 12.703-10.297 23-23 23-6.081 0-11.606-2.364-15.719-6.219 4.16 4.144 9.883 6.719 16.219 6.719 12.703 0 23-10.298 23-23 0-6.335-2.575-12.06-6.719-16.219z"
     style="opacity:.05"
     id="path9" />
  <path
     d="m41.28 8.781c3.712 4.085 5.969 9.514 5.969 15.469 0 12.703-10.297 23-23 23-5.954 0-11.384-2.256-15.469-5.969 4.113 3.854 9.637 6.219 15.719 6.219 12.703 0 23-10.298 23-23 0-6.081-2.364-11.606-6.219-15.719z"
     style="opacity:.1"
     id="path11" />
  <path
     d="m31.25 2.375c8.615 3.154 14.75 11.417 14.75 21.13 0 12.426-10.07 22.5-22.5 22.5-9.708 0-17.971-6.135-21.12-14.75a23 23 0 0 0 44.875-7 23 23 0 0 0-16-21.875z"
     style="opacity:.2"
     id="path13" />
  <circle
     cx="24"
     cy="24"
     r="23"
     style="fill:url(#bg)"
     id="circle15" />
  <path
     d="m40.03 7.531c3.712 4.084 5.969 9.514 5.969 15.469 0 12.703-10.297 23-23 23-5.954 0-11.384-2.256-15.469-5.969 4.178 4.291 10.01 6.969 16.469 6.969 12.703 0 23-10.298 23-23 0-6.462-2.677-12.291-6.969-16.469z"
     style="opacity:.1"
     id="path17" />
  <path
     d="m23 10c-5 0-6.4068 1-7 2 3.8559 0 5 1 5 1h-1.5c-4.0612 0-7.5 6.3422-7.5 12.5 1-1.5 2.5-2.5 2.5-2.5-1.1063 1.5-2.5 4.5-2.5 9.5 0 1.4081 0.35811 2.5747 0.79102 3.5h25.209c-3.0256-2.2476-8-5.356-8-10 0-2 2-4 8-4h2c0-2-2-5-6-6-1.356-2-5-6-11-6z"
     style="opacity:.1;paint-order:normal"
     id="path19" />
  <path
     style="fill:#f9f9f9;paint-order:normal"
     d="M 22 9 C 17 9 15.5932 10 15 11 L 20 11 L 20 12 L 18.5 12 C 15.160947 12 12.246726 16.289234 11.314453 21.236328 L 13.5 22 C 12.3937 23.5 11 26.5 11 31.5 C 11 31.966342 11.048921 32.397175 11.117188 32.810547 L 13.251953 35 L 37 35 C 33.9744 32.7524 29 29.644 29 25 C 29 23 31 21 37 21 L 39 21 C 39 19 37 16 33 15 C 31.644 13 28 9 22 9 z "
     id="path21" />
  <path
     d="m27 14c2 0 3 0 3 2-2 0-3 0-3-2z"
     style="fill:#2a2a2a;paint-order:normal"
     id="path23" />
  <path
     d="m18.922 10.396c-1.9023 0.0176-3.2593 0.12471-3.9219 0.60352 3.8559 0 5 1 5 1 0.42646-0.30285 1-0.84621 1-1.6016-0.75-4e-3 -1.444-8e-3 -2.0781-2e-3zm8.0781 6.6035c-7.0205 0-13.085 1.6951-15.686 4.2363-0.20162 1.0699-0.31445 2.1687-0.31445 3.2637 1-1.5 2.5-2.5 2.5-2.5 3.9522-2.7064 9.0005-4.5962 13.5-5zm6 3c-8.9335 0-16.711 4.1356-21.883 12.811 0.1399 0.84782 0.39464 1.5734 0.68164 2.1895h1.4531c2.874-6.4016 11.626-15 19.748-15z"
     style="fill:#f9ca5b;paint-order:normal"
     id="path25" />
</svg>

<svg version="1.1" viewBox="0 0 48 48" xmlns="http://www.w3.org/2000/svg">
 <defs>
  <linearGradient id="bg" x2="0" y1="1" y2="47" gradientUnits="userSpaceOnUse">
   <stop style="stop-color:#b799fd" offset="0"/>
   <stop style="stop-color:#a987fb" offset="1"/>
  </linearGradient>
 </defs>
 <path d="m36.31 5c5.859 4.062 9.688 10.831 9.688 18.5 0 12.426-10.07 22.5-22.5 22.5-7.669 0-14.438-3.828-18.5-9.688 1.037 1.822 2.306 3.499 3.781 4.969 4.085 3.712 9.514 5.969 15.469 5.969 12.703 0 23-10.298 23-23 0-5.954-2.256-11.384-5.969-15.469-1.469-1.475-3.147-2.744-4.969-3.781zm4.969 3.781c3.854 4.113 6.219 9.637 6.219 15.719 0 12.703-10.297 23-23 23-6.081 0-11.606-2.364-15.719-6.219 4.16 4.144 9.883 6.719 16.219 6.719 12.703 0 23-10.298 23-23 0-6.335-2.575-12.06-6.719-16.219z" style="opacity:.05"/>
 <path d="m41.28 8.781c3.712 4.085 5.969 9.514 5.969 15.469 0 12.703-10.297 23-23 23-5.954 0-11.384-2.256-15.469-5.969 4.113 3.854 9.637 6.219 15.719 6.219 12.703 0 23-10.298 23-23 0-6.081-2.364-11.606-6.219-15.719z" style="opacity:.1"/>
 <path d="m31.25 2.375c8.615 3.154 14.75 11.417 14.75 21.13 0 12.426-10.07 22.5-22.5 22.5-9.708 0-17.971-6.135-21.12-14.75a23 23 0 0 0 44.875-7 23 23 0 0 0-16-21.875z" style="opacity:.2"/>
 <circle cx="24" cy="24" r="23" style="fill:url(#bg)"/>
 <path d="m40.03 7.531c3.712 4.084 5.969 9.514 5.969 15.469 0 12.703-10.297 23-23 23-5.954 0-11.384-2.256-15.469-5.969 4.178 4.291 10.01 6.969 16.469 6.969 12.703 0 23-10.298 23-23 0-6.462-2.677-12.291-6.969-16.469z" style="opacity:.1"/>
 <path d="m23 10c-5 0-6.4068 1-7 2 3.8559 0 5 1 5 1h-1.5c-4.0612 0-7.5 6.3422-7.5 12.5 1-1.5 2.5-2.5 2.5-2.5-1.1063 1.5-2.5 4.5-2.5 9.5 0 1.4081 0.35811 2.5747 0.79102 3.5h25.209c-3.0256-2.2476-8-5.356-8-10 0-2 2-4 8-4h2c0-2-2-5-6-6-1.356-2-5-6-11-6z" style="opacity:.1;paint-order:normal"/>
 <path d="m22 9c-5 0-6.4068 1-7 2 3.8559 0 5 1 5 1h-1.5c-4.0612 0-7.5 6.3422-7.5 12.5 1-1.5 2.5-2.5 2.5-2.5-1.1063 1.5-2.5 4.5-2.5 9.5 0 1.4081 0.35811 2.5747 0.79102 3.5h25.209c-3.0256-2.2476-8-5.356-8-10 0-2 2-4 8-4h2c0-2-2-5-6-6-1.356-2-5-6-11-6z" style="fill:#f9f9f9;paint-order:normal"/>
 <path d="m27 14c2 0 3 0 3 2-2 0-3 0-3-2z" style="fill:#2a2a2a;paint-order:normal"/>
 <path d="m18.922 10.396c-1.9023 0.0176-3.2593 0.12471-3.9219 0.60352 3.8559 0 5 1 5 1 0.42646-0.30285 1-0.84621 1-1.6016-0.75-4e-3 -1.444-8e-3 -2.0781-2e-3zm8.0781 6.6035c-7.0205 0-13.085 1.6951-15.686 4.2363-0.20162 1.0699-0.31445 2.1687-0.31445 3.2637 1-1.5 2.5-2.5 2.5-2.5 3.9522-2.7064 9.0005-4.5962 13.5-5zm6 3c-8.9335 0-16.711 4.1356-21.883 12.811 0.1399 0.84782 0.39464 1.5734 0.68164 2.1895h1.4531c2.874-6.4016 11.626-15 19.748-15z" style="fill:#f9ca5b;paint-order:normal"/>
</svg>
